flaticon/transport/train.svg

<svg xmlns="http://www.w3.org/2000/svg" width="32" height="32" viewBox="0 0 24 24">
    <path d="M 21.441406 23.28125 L 17.84375 20.664062 C 18.40625 20.414062 18.800781 19.851562 18.800781 19.199219 L 18.800781 5.601562 C 18.800781 4.71875 18.078125 4 17.199219 4 L 15.066406 4 L 14.359375 1.878906 C 14.320312 1.71875 14.160156 1.601562 14 1.601562 L 10 1.601562 C 9.839844 1.601562 9.679688 1.71875 9.640625 1.878906 L 8.933594 4 L 6.800781 4 C 5.921875 4 5.199219 4.71875 5.199219 5.601562 L 5.199219 19.199219 C 5.199219 19.773438 5.503906 20.277344 5.960938 20.558594 L 2.558594 23.28125 C 2.441406 23.398438 2.398438 23.558594 2.441406 23.71875 C 2.480469 23.878906 2.640625 24 2.800781 24 L 21.199219 24 C 21.359375 24 21.519531 23.878906 21.601562 23.71875 C 21.640625 23.558594 21.601562 23.398438 21.441406 23.28125 Z M 8.800781 21.601562 L 8.800781 20.800781 L 14.800781 20.800781 L 14.800781 21.601562 Z M 14.800781 22.398438 L 14.800781 23.199219 L 8.800781 23.199219 L 8.800781 22.398438 Z M 8 21.601562 L 5.960938 21.601562 L 6.960938 20.800781 L 8 20.800781 Z M 15.601562 20.800781 L 16.71875 20.800781 L 17.8125 21.601562 L 15.601562 21.601562 Z M 18 19.199219 C 18 19.640625 17.640625 20 17.199219 20 L 6.800781 20 C 6.359375 20 6 19.640625 6 19.199219 L 6 16 L 18 16 Z M 18 15.199219 L 6 15.199219 L 6 9.601562 L 18 9.601562 Z M 10.28125 2.398438 L 13.71875 2.398438 L 14.238281 4 L 9.761719 4 Z M 6 5.601562 C 6 5.160156 6.359375 4.800781 6.800781 4.800781 L 17.199219 4.800781 C 17.640625 4.800781 18 5.160156 18 5.601562 L 18 8.800781 L 6 8.800781 Z M 4.960938 22.398438 L 8 22.398438 L 8 23.199219 L 3.960938 23.199219 Z M 15.601562 23.199219 L 15.601562 22.398438 L 18.800781 22.398438 L 18.800781 22.320312 L 20 23.199219 Z M 15.601562 23.199219"/>
    <path d="M8 19.199219C8.679688 19.199219 9.199219 18.679688 9.199219 18 9.199219 17.320312 8.679688 16.800781 8 16.800781 7.320312 16.800781 6.800781 17.320312 6.800781 18 6.800781 18.679688 7.320312 19.199219 8 19.199219zM8 17.601562C8.238281 17.601562 8.398438 17.761719 8.398438 18 8.398438 18.238281 8.238281 18.398438 8 18.398438 7.761719 18.398438 7.601562 18.238281 7.601562 18 7.601562 17.761719 7.761719 17.601562 8 17.601562zM16 19.199219C16.679688 19.199219 17.199219 18.679688 17.199219 18 17.199219 17.320312 16.679688 16.800781 16 16.800781 15.320312 16.800781 14.800781 17.320312 14.800781 18 14.800781 18.679688 15.320312 19.199219 16 19.199219zM16 17.601562C16.238281 17.601562 16.398438 17.761719 16.398438 18 16.398438 18.238281 16.238281 18.398438 16 18.398438 15.761719 18.398438 15.601562 18.238281 15.601562 18 15.601562 17.761719 15.761719 17.601562 16 17.601562zM14.800781 5.601562L9.199219 5.601562C8.960938 5.601562 8.800781 5.761719 8.800781 6L8.800781 7.601562C8.800781 7.839844 8.960938 8 9.199219 8L14.800781 8C15.039062 8 15.199219 7.839844 15.199219 7.601562L15.199219 6C15.199219 5.761719 15.039062 5.601562 14.800781 5.601562zM14.398438 7.199219L9.601562 7.199219 9.601562 6.398438 14.398438 6.398438zM14.398438 7.199219"/>
    <path d="M 3.199219 21.199219 C 3.28125 21.199219 3.359375 21.160156 3.441406 21.121094 C 3.601562 21 3.640625 20.71875 3.519531 20.558594 C 1.800781 18.28125 0.800781 15.078125 0.800781 12 C 0.800781 5.839844 5.839844 0.800781 12 0.800781 C 18.160156 0.800781 23.199219 5.839844 23.199219 12 C 23.199219 14.839844 22 18.121094 20.078125 20.558594 C 19.960938 20.71875 20 21 20.160156 21.121094 C 20.320312 21.238281 20.601562 21.199219 20.71875 21.039062 C 22.761719 18.441406 24 15.039062 24 12 C 24 5.398438 18.601562 0 12 0 C 5.398438 0 0 5.398438 0 12 C 0 15.238281 1.078125 18.601562 2.878906 21.039062 C 2.960938 21.160156 3.078125 21.199219 3.199219 21.199219 Z M 3.199219 21.199219"/>
</svg>

<svg xmlns="http://www.w3.org/2000/svg" width="32" height="32" viewBox="0 0 24 24">
    <path d="M21.441 23.281l-3.597-2.617c.562-.25.957-.812.957-1.465V5.602C18.8 4.719 18.078 4 17.199 4h-2.133l-.707-2.121A.38.38 0 0 0 14 1.602h-4a.38.38 0 0 0-.36.277L8.935 4H6.8c-.88 0-1.602.719-1.602 1.602v13.597c0 .574.305 1.078.762 1.36L2.559 23.28c-.118.117-.16.278-.118.438.04.16.2.281.36.281h18.398c.16 0 .32-.121.403-.281.039-.16 0-.32-.16-.438zm-12.64-1.68v-.8h6v.8zm6 .797v.801h-6v-.8zM8 21.602H5.96l1-.801H8zm7.602-.801h1.117l1.093.8h-2.21zM18 19.199c0 .442-.36.801-.8.801H6.8c-.44 0-.8-.36-.8-.8V16h12zm0-4H6V9.602h12zM10.281 2.4h3.438L14.239 4H9.761zM6 5.601c0-.442.36-.801.8-.801h10.4c.44 0 .8.36.8.8v3.2H6zM4.96 22.398H8v.801H3.96zm10.642.801v-.8H18.8v-.079L20 23.2zm0 0"/>
    <path d="M8 19.2c.68 0 1.2-.52 1.2-1.2 0-.68-.52-1.2-1.2-1.2-.68 0-1.2.52-1.2 1.2 0 .68.52 1.2 1.2 1.2zm0-1.598c.238 0 .398.16.398.398 0 .238-.16.398-.398.398-.238 0-.398-.16-.398-.398 0-.238.16-.398.398-.398zm0 0M16 19.2c.68 0 1.2-.52 1.2-1.2 0-.68-.52-1.2-1.2-1.2-.68 0-1.2.52-1.2 1.2 0 .68.52 1.2 1.2 1.2zm0-1.598c.238 0 .398.16.398.398 0 .238-.16.398-.398.398-.238 0-.398-.16-.398-.398 0-.238.16-.398.398-.398zm0 0M14.8 5.602H9.2c-.24 0-.4.16-.4.398v1.602c0 .238.16.398.4.398h5.6c.24 0 .4-.16.4-.398V6c0-.238-.16-.398-.4-.398zm-.402 1.597H9.602v-.8h4.796zm0 0"/>
    <path d="M3.2 21.2c.081 0 .16-.04.241-.079.16-.121.2-.402.079-.562C1.8 18.28.8 15.079.8 12 .8 5.84 5.84.8 12 .8 18.16.8 23.2 5.84 23.2 12c0 2.84-1.2 6.121-3.122 8.559-.117.16-.078.441.082.562.16.117.442.078.559-.082C22.762 18.441 24 15.04 24 12c0-6.602-5.398-12-12-12S0 5.398 0 12c0 3.238 1.078 6.602 2.879 9.04.082.12.2.16.32.16zm0 0"/>
</svg>
